incomeartour/img/icons/facebook.svg

<svg width="26" height="26" viewBox="0 0 26 26" fill="none" xmlns="http://www.w3.org/2000/svg">
<path d="M25.5 13.076C25.5 6.17239 19.9036 0.575958 13 0.575958C6.09644 0.575958 0.5 6.17239 0.5 13.076C0.5 19.315 5.07104 24.4864 11.0469 25.4241V16.6892H7.87305V13.076H11.0469V10.3221C11.0469 7.18924 12.9131 5.45877 15.7683 5.45877C17.1355 5.45877 18.5664 5.70291 18.5664 5.70291V8.77908H16.9902C15.4375 8.77908 14.9531 9.74271 14.9531 10.7322V13.076H18.4199L17.8657 16.6892H14.9531V25.4241C20.929 24.4864 25.5 19.315 25.5 13.076Z" fill="#272727"/>
</svg>

<svg width="26" height="26" fill="none" xmlns="http://www.w3.org/2000/svg"><path d="M25.5 13.076c0-6.904-5.596-12.5-12.5-12.5S.5 6.172.5 13.076c0 6.239 4.571 11.41 10.547 12.348V16.69H7.873v-3.613h3.174v-2.754c0-3.133 1.866-4.863 4.721-4.863 1.367 0 2.798.244 2.798.244V8.78H16.99c-1.552 0-2.037.964-2.037 1.953v2.344h3.467l-.554 3.613h-2.913v8.735c5.977-.939 10.547-6.11 10.547-12.349z" fill="#272727"/></svg>
